X: 53
T: No_152_Song_of_Thanks_for_a_Pony_(b).krn
N: Derived from No_152_Song_of_Thanks_for_a_Pony_(b).krn
%%abc-version 2.0
%%abcx-abcm2ps-target-version 5.9.1 (29 Sep 2008)
%%abc-creator hum2abc beta
%%abcx-conversion-date 2019/03/15 08:29:13
%%humdrum-veritas 516094708
%%humdrum-veritas-data 3413632887
%%linebreak <none>
%%barnumbers 0
L: 1/8
M: 2/4
%%staves {1 2}
V: 1 clef=bass
V: 2 clef=bass
K: F
[V:1] [K:clef=bass][M:2/4]E3/E/ (3EGE | 
[V:2] [K:clef=bass][M:2/4]z4 | 
[V:1] D3/A,/ A,E- ||  
[V:2] (3!accent!G,, z G,, (3!accent!G,, z G,, ||  
[V:1] [M:3/4]EF2E2D ||  
[V:2] [M:3/4]z6 ||  
[V:1] [M:2/4]F3/E/ (3EEE | 
[V:2] [M:2/4]z4 | 
[V:1] D3/A,/ D3/A,/ | 
[V:2] z4 | 
[V:1] A,2A,3/F,/ | 
[V:2] z4 | 
[V:1] E,3/D,/ D,3/D,/ | 
[V:2] z4 | 
[V:1] D,4 ||  
[V:2] z4 ||  
[V:1] [M:3/4]E,3/E,/ F,3/E,/ E,3/D,/ ||  
[V:2] [M:3/4]z6 ||  
[V:1] [M:2/4]F,3/E,/ E,3/D,/ | 
[V:2] [M:2/4]z4 | 
[V:1] D,2z A, | 
[V:2] z4 | 
[V:1] D3/D/ (3_E{/E}DA, | 
[V:2] z4 | 
[V:1] D3/A,/ A,/A,3/ | 
[V:2] z4 | 
[V:1] A,/F,3/ E,/D,3/ ||  
[V:2] z4 ||  
[V:1] [M:3/4]E,3/E,/ F,3/E,/ E,/D,3/ | 
[V:2] [M:3/4]z6 | 
[V:1] [M:2/4]F,3/E,/ E,3/D,/ | 
[V:2] [M:2/4]z4 | 
[V:1] D,4 |]  
[V:2] z4 |]  



